X:146
T:Ancestral Landscape
C:Laurence Beaudry
N: Laurence Beaudry, Reproduced with permission
Z:robin.beech@mcgill.ca
R:jig
M:6/8
L:1/8
K:Emin
E2B BAB | dBA BAG | C2c cBc | dcB A3 |
f2f def | fef def | gec fdB |1 cBA BAG :|2 cBA Beg |:
bge BeB | GBe cef | afe dfa | bag ega |
bge BeB | GBe cef | afe dfa | bag e3 :|
